material/.icons/material/table-column-width.svg

<svg xmlns="http://www.w3.org/2000/svg" viewBox="0 0 24 24"><path d="M5 8h14a2 2 0 012 2v10a2 2 0 01-2 2H5a2 2 0 01-2-2V10a2 2 0 012-2m0 4v3h6v-3H5m8 0v3h6v-3h-6m-8 5v3h6v-3H5m8 0v3h6v-3h-6M11 2h10v4h-2V4h-6v2h-2V2z"/></svg>

<?xml version="1.0" encoding="UTF-8"?><!DOCTYPE svg PUBLIC "-//W3C//DTD SVG 1.1//EN" "http://www.w3.org/Graphics/SVG/1.1/DTD/svg11.dtd"><svg xmlns="http://www.w3.org/2000/svg" xmlns:xlink="http://www.w3.org/1999/xlink" version="1.1" id="mdi-table-column-width" width="24" height="24" viewBox="0 0 24 24"><path d="M5,8H19A2,2 0 0,1 21,10V20A2,2 0 0,1 19,22H5A2,2 0 0,1 3,20V10A2,2 0 0,1 5,8M5,12V15H11V12H5M13,12V15H19V12H13M5,17V20H11V17H5M13,17V20H19V17H13M11,2H21V6H19V4H13V6H11V2Z" /></svg>
